public/formular-icons/greece/lower-xi.svg

<svg style="vertical-align:-.464ex" xmlns="http://www.w3.org/2000/svg" width=".991ex" height="2.057ex" viewBox="0 -704 438 909" xmlns:xlink="http://www.w3.org/1999/xlink"><defs><path id="a" d="M268 632q0 72 28 72 18 0 18-17 0-5-3-23t-3-29 1-15v-4h6q27 3 45 3 83 0 83-33-4-38-85-40h-14q-18 0-27 3t-27 17q-33-16-64-61t-31-100q0-24 6-41t10-22 7-5q48 10 80 10 77 0 77-33-1-17-16-26t-32-11-47-2q-46 0-72 8l-13 3q-46-26-76-72t-31-84q0-14 2-22 11-29 39-45t100-43q9-3 14-5 94-36 111-48 29-20 29-61 0-43-32-77t-78-34q-33 0-71 15t-44 23q-2 4-2 8 0 8 5 13t15 6q6 0 13-3 43-25 85-25 12 0 18 3 21 14 21 36 0 17-12 25t-69 29q-18 7-28 11-6 2-33 12t-35 14-29 14T78-8 56 12 36 37 26 66t-5 37q0 46 34 103t90 95l9 6-6 6q-7 6-12 10t-12 15-13 20-8 24-4 31q0 58 44 111t116 78l12 5q-3 11-3 25Z"/></defs><g stroke="currentColor" fill="currentColor" stroke-width="0"><use data-c="1D709" xlink:href="#a" transform="scale(1 -1)"/></g></svg>

<svg style="vertical-align: -0.464ex" xmlns="http://www.w3.org/2000/svg" width="0.991ex" height="2.057ex" role="img" focusable="false" viewBox="0 -704 438 909" xmlns:xlink="http://www.w3.org/1999/xlink"><defs><path id="MJX-112-TEX-I-1D709" d="M268 632Q268 704 296 704Q314 704 314 687Q314 682 311 664T308 635T309 620V616H315Q342 619 360 619Q443 619 443 586Q439 548 358 546H344Q326 546 317 549T290 566Q257 550 226 505T195 405Q195 381 201 364T211 342T218 337Q266 347 298 347Q375 347 375 314Q374 297 359 288T327 277T280 275Q234 275 208 283L195 286Q149 260 119 214T88 130Q88 116 90 108Q101 79 129 63T229 20Q238 17 243 15Q337 -21 354 -33Q383 -53 383 -94Q383 -137 351 -171T273 -205Q240 -205 202 -190T158 -167Q156 -163 156 -159Q156 -151 161 -146T176 -140Q182 -140 189 -143Q232 -168 274 -168Q286 -168 292 -165Q313 -151 313 -129Q313 -112 301 -104T232 -75Q214 -68 204 -64Q198 -62 171 -52T136 -38T107 -24T78 -8T56 12T36 37T26 66T21 103Q21 149 55 206T145 301L154 307L148 313Q141 319 136 323T124 338T111 358T103 382T99 413Q99 471 143 524T259 602L271 607Q268 618 268 632Z"></path></defs><g stroke="currentColor" fill="currentColor" stroke-width="0" transform="scale(1,-1)"><g data-mml-node="math"><g data-mml-node="mi"><use data-c="1D709" xlink:href="#MJX-112-TEX-I-1D709"></use></g></g></g></svg>
